X:1
T:When the crimson sun had set
T:Arranged by Edgar Pettman(1866-1943)
T:© CPDL 2015
T:When the crimson sun had set
T:© CPDL 2015
C:Arranged by Edgar Pettman(1866-1943)
Z:© CPDL 2015
%%score [ ( 1 2 ) ( 3 4 ) ]
L:1/8
M:4/4
K:F
V:1 treble nm="Soprano" snm="S."
V:2 treble 
V:3 bass nm="Bass" snm="B."
V:4 bass 
V:1
!pp!"^Very smoothly" F2 G2 A2 c2 | c3 B A4 | A2 G2 A2 c2 | A3 G F4 | A2 (FG) A2 d2 | c3 B A4 | %6
 A2 (FG) A2 c2 | A3 G F4 ||!f! c4 dcBA | B4 cBAG | A4 BAGF | G3 C C4 | F2 G2 A2 B2 | A4 G4 | %14
 c4 dcBA | %15
 B4"^3.  Where the manger crib is laid      In the city fair and free,     Hand in hand the shepherd band      Worship Christ on bended knee.         Gloria in excelsis Deo." cBAG | %16
 A4 BAGF | %17
 G3"^4.  Join with us in welcome song,     Ye who in Christ's home abide,     Sing the love of God above     Manifest at this glad tide.        Gloria in excelsis Deo." C C4 | %18
 F2 G2 A2 B2 | A4 G4 | F8 || %21
V:2
 F2 F2 F2 A2 | F2 G2 F4 | F2 E2 F2 F2 | F2 E2 F4 | C2 F2 E2 D2 | F2 E2 F4 | F2 D2 E2 F2 | %7
w: When the crim- son|sun had set|Now be- hind the|Win- 'try sea.|On the bright and|cold mid- night|Burst a sound of|
w: Shep- herds watch- ing|by their fold|On the crisp and|hoar- y plain,|In the sky, bright|hosts es- py,|Sing- ing in a|
 F2 E2 C4 || A4- A2 ^F2 | G4- G2 E2 | F4 F2 D2 | B,3 G, G,4 | C2 E2 F2 F2 | G2 F2- F2 E2 | %14
w: heaven- ly glee;|Glor- * *|||* i- a,|In ex- cei- sis|De- * o, _|
w: glad- some train,|||||||
 A4- A2 ^F2 | G4- G2 E2 | F4- F2 D2 | B,3 G, G,4 | C2 E2 F2 F2 | (G2 F2) (D2 E2) | C8 || %21
w: Glor- * *|||* i- a,|In ex- cel- sis|De- * * *|o.|
w: |||||||
V:3
!pp! A,2 B,2 C2 F2 | D2 E2 C4 | C2 C2 C2 C2 | C3 B, A,4 | F,2 F,2 F,2 F,2 | C3 C C4 | %6
 D2 B,2 C2 C2 | D2 B,2 A,4 ||!f! E4 D4- | D4 C4- | C4 B,4 | (D,2 F,2) (F,2 E,2) | F,2 C2 C2 D2 | %13
 C4 C4 | E4 D4- | D4 C4- | C4 B,4 | (D,2 F,2) (F,2 E,2) | F,2 C2 C2 D2 | C4 B,4 | [F,A,]8 || %21
V:4
 F,2 F,2 F,2 F,2 | F,2 F,2 F,4 | F,2 C,2 F,2 A,,2 | C,2 C,2 F,4 | F,2 D,2 C,2 B,,2 | A,,2 C,2 F,4 | %6
 D,2 D,2 C,2 A,,2 | B,,2 C,2 [F,,F,]4 || A,2 G,2 ^F,2 D,2 | G,2 =F,2 E,2 C,2 | F,2 E,2 D,2 B,,2 | %11
 G,,4 C,4 | A,,2 C,2 F,2 B,,2 | (C,2 F,2) C4 | A,2 G,2 ^F,2 D,2 | G,2 =F,2 E,2 C,2 | %16
 F,2 E,2 D,2 B,,2 | G,,4 C,4 | A,,2 C,2 F,2 G,,2 | C,4 C,4 | x8 || %21

